!!!OTL: Vater und Tochter Schoenes Maedchen, was machst du hier,
!!!ARE: Europa, Osteuropa, Tschechoslowakei, Unterzips
!!!ARD1: Europa%Osteuropa%Tschechoslowakei@Unterzips#?
!!!ARL1: ? / ?
!!!ARD2: Europa%Osteuropa%Tschechoslowakei@
!!!ARL2: 49.75/15.00@
!!!YOR: 7, S. 20
!!    1844 aufgezeichnet
!!!SCT: Q0142B
!!!YEM: Copyright 1995, estate of Helmut Schaffrath.
**kern
*ICvox
*Ivox
*M2/4
*k[f#]
*G:
=1
{8g
8g
8d
16d
16d
=2
8e
8e
4d}
=3
{8d
8d
8e
8f#
=4
4g
4r}
=5
{8g
8g
8d
16d
16d
=6
8e
8e
4d}
=7
{8d
8d
8e
8f#
=8
4g
4r}
=9
{8f#
8a
8a
8a
=10
8a
8b
4a}
=11
{8b
8g
8g
8e
=12
8d
8e
4d}
=13
{8d
8d
8e
8f#
=14
8g
8b
4dd}
=15
{8b
8d
8b
8a
=16
4g
4r}
=17
{8f#
8a
8a
8a
=18
8a
8b
4a}
=19
{8b
8g
8g
8e
=20
8d
8e
4d}
=21
{8d
8d
8e
8f#
=22
8g
8b
4dd}
=23
{8b
8d
8b
8a
=24
4g
4r}
==
!!!AGN: Ballade, Verfuehrung, Verwechslung
!!!ONB: ESAC (Essen Associative Code) Database: BALLADE
!!!AMT: simple duple
!!!AIN: vox
!!!EED: Helmut Schaffrath
!!!EEV: 1.0
*-
!!!title: @{OTL} [@{SCT}]
